X:1
T:The Savior for Me
T:The Savior for Me
T:William Marion Runyan
T:William Marion Runyan, 1918
T:Public Domain Courtesy of the Cyber Hymnal™
T:Public Domain Courtesy of the Cyber Hymnal™
C:William Marion Runyan
Z:Public Domain
Z:Courtesy of the Cyber Hymnal™
%%score ( 1 2 ) ( 3 4 )
L:1/8
Q:1/4=90
M:6/8
K:F
V:1 treble 
V:2 treble 
V:3 bass 
V:4 bass 
V:1
 [CA] | [FA]>[EA][DA] [CA]2 [FA]/[GB]/ | [Ac]>[Ad][Ac] [FA]2 [CA] | [DB]>[EB][FB] [GB][FB][DB] | %4
w: 1.~From|Heav- en a- bove, in His|in- fi- nite love, Came|Je- sus, a Sav- ior to|
w: 2.~The|birds had their nest and the|peo- ple their rest, While|Je- sus all night made His|
w: 3.~For|sil- ver be- trayed, in mock|pur- ple ar- rayed, Con-|demned to a death on the|
 [CA]3- [CA]2 [FA]/[GB]/ | [Ac]>[^G=B][_Bd] [Ac]2 ([FA]/[EA]/) | [DB][FB][DB] [CA]2 ([FA]/[GB]/) | %7
w: be; * And He|scorned the deep pain our *|ran- som to gain, O *|
w: plea; * On the|mount- ain a- lone was~the *|Fa- ther’s dear Son, O *|
w: tree; * Then they|led Him a- way on~that *|won- der- ful day, O *|
 [Ac]>[Bd][Ac] [Ac][EB]>[B,G] | F3- [A,F]2 ||"^Refrain" [A,FA]/[B,GB]/ | %10
w: He is the Sav- ior for|me. *||
w: He is the Sav- ior for|me. O||
w: He is the Sav- ior for|me. *||
 [CAc]>[=B,^G=B][CAc] [Ece][D_Bd]>[A,^FA] | (z [B,EB]2) [B,GB] x3 | [B,GB]>[CAc][DBd] | %13
w: |||
w: Je- sus is will- ing to|* be|* A Sav-|
w: |||
 [Ece][DBd][CAc] | A3- [CA]2 [A,FA]/[B,GB]/ | [B,Ac]>[=B,^G=B][CAc] [A,FA]2 [CAc]/[^CA^c]/ | %16
w: |||
w: ior for sin-|ners like me. And|* the bur- den will roll|
w: |||
 [DBd]>[^CB^c][DBd] !fermata![B,DB]2 [=CA=c]/[DBd]/ | [CAc]>[CGB][CFA] [DEB][CEA][B,CG] | %18
w: ||
w: From the poor trou- bled soul|That to Je- sus the Sav-|
w: ||
 [A,CF]3- [A,CF]2 |] %19
w: |
w: ior *|
w: |
V:2
 x | x6 | x6 | x6 | x6 | x6 | x6 | x6 | A,A,B, x2 || x | x6 | [CB-]3 GGF x | x3 | x3 | [A,F]ED x3 | %15
 x6 | x6 | x6 | x5 |] %19
V:3
 z | (E,,[C,F,A,]) z (E,,[C,F,A,]) z | (E,,[C,F,A,]) z (E,,[C,F,A,]) z | %3
w: |~ * ~ *|~ * ~ *|
 (B,,[D,F,B,]) z B,,[D,F,B,] z | (F,,A,,C, F,2) z | (F,,[C,F,A,]) z (F,,[C,F,A,]) z | %6
w: ~ * ~ ~|~ * * *|~ * ~ *|
 B,,D,F, (F,,[C,F,A,]) z | C,3 C,G,C, | z [C,F,][_D,F,] [F,,C,F,]2 || z | %10
w: ~ ~ ~ ~ *|~ ~ ~ the|Sav- ior ~||
 [F,,F,][C,F,A,] z [C,,C,][C,E,G,] z | z2 E, F, G,2 z | [C,,C,][C,E,G,] z | [C,,C,][C,E,B,] z | %14
w: * ~ ~ and|wai- ting to|~ ~|~ ~|
 F,,2 [C,F,] [F,A,]2 z | (F,,[C,F,A,]) z (F,,[C,F,A,]) z | %16
w: e- ven me,||
 (B,,[D,F,B,]) z (!fermata!G,!fermata!F,) z | C,3 C,2 [C,E,] | F,3- [F,,F,]2 |] %19
w: |||
V:4
 x | x6 | x6 | x6 | x6 | x6 | x6 | x6 | F,,3- x2 || x | x6 | (C,3- C,C,,) x2 | x3 | x3 | x6 | x6 | %16
w: |||||||||||* be *|||||
 x3 G,,2 x | x6 | F,2 C, x2 |] %19
w: |||

